epam-assets/icon-sources/18/internal-logo/time.svg

<svg width="18" height="18" viewBox="0 0 18 18" fill="none" xmlns="http://www.w3.org/2000/svg">
<g id="18/internal-logo/time">
<path id="icon" d="M12.3272 4.44146C11.4946 3.83142 10.5095 3.4634 9.48088 3.37802V1.5C11.0053 1.59559 12.4637 2.15653 13.6592 3.10712L12.3272 4.44146ZM11.8283 6.17112L9.48088 10.3967L9.3339 10.2497C9.16347 10.3448 8.9718 10.3953 8.77663 10.3967C8.12842 10.3967 7.60294 9.87121 7.60294 9.22292C7.6043 9.02774 7.65484 8.83607 7.74988 8.66561L7.60294 8.51865L11.8283 6.17112ZM3.37764 8.98815C3.37483 11.9174 5.6182 14.3595 8.53699 14.6046C11.4558 14.8497 14.075 12.8158 14.5606 9.92713H16.4582C15.9715 13.8014 12.5968 16.6561 8.69571 16.4934C4.79463 16.3307 1.66923 13.2052 1.50661 9.30384C1.34399 5.40251 4.19841 2.02763 8.07241 1.54084V3.4386C5.36329 3.89537 3.37927 6.24063 3.37764 8.98815ZM13.355 5.40676L14.6827 4.079C15.76 5.31882 16.3987 6.8792 16.5 8.51865H14.6221C14.5283 7.37611 14.0859 6.28997 13.355 5.40676Z" fill="#6C6F80"/>
</g>
</svg>

<svg xmlns="http://www.w3.org/2000/svg" width="18" height="18" fill="none" viewBox="0 0 18 18">
  <path fill="#6C6F80" d="M12.327 4.441a5.6 5.6 0 0 0-2.846-1.063V1.5a7.464 7.464 0 0 1 4.178 1.607l-1.332 1.334Zm-.499 1.73-2.347 4.226-.147-.147a1.16 1.16 0 0 1-.557.147 1.174 1.174 0 0 1-1.174-1.174c.001-.195.052-.387.147-.557l-.147-.147 4.225-2.348Zm-8.45 2.817a5.63 5.63 0 0 0 11.183.94h1.897A7.508 7.508 0 1 1 8.072 1.54v1.898a5.631 5.631 0 0 0-4.694 5.55Zm9.977-3.581 1.328-1.328a7.471 7.471 0 0 1 1.817 4.44h-1.878a5.6 5.6 0 0 0-1.267-3.112Z"/>
</svg>
